domfk/img/footer/phone.svg

<svg width="18" height="18" viewBox="0 0 18 18" fill="none" xmlns="http://www.w3.org/2000/svg">
<path d="M16.5557 11.8149C15.4537 11.8149 14.3716 11.6426 13.3462 11.3037C12.8438 11.1323 12.2261 11.2896 11.9194 11.6045L9.8955 13.1324C7.54833 11.8794 6.10252 10.4341 4.8667 8.10455L6.34959 6.13336C6.73486 5.74861 6.87305 5.18658 6.70748 4.65923C6.36717 3.62845 6.1943 2.54691 6.1943 1.44441C6.19434 0.647953 5.54639 0 4.74998 0H1.44436C0.647953 0 0 0.647953 0 1.44436C0 10.5733 7.42678 18 16.5557 18C17.3521 18 18 17.352 18 16.5556V13.2593C18 12.4629 17.352 11.8149 16.5557 11.8149Z" fill="#FFC844"/>
</svg>

<svg width="18" height="18" fill="none" xmlns="http://www.w3.org/2000/svg"><path d="M16.556 11.815c-1.102 0-2.184-.172-3.21-.511-.502-.172-1.12-.014-1.427.3l-2.024 1.528c-2.347-1.253-3.792-2.698-5.028-5.027L6.35 6.133c.385-.384.523-.946.357-1.474a10.235 10.235 0 01-.513-3.215C6.194.648 5.546 0 4.75 0H1.444C.648 0 0 .648 0 1.444 0 10.574 7.427 18 16.556 18c.796 0 1.444-.648 1.444-1.444v-3.297c0-.796-.648-1.444-1.444-1.444z" fill="#FFC844"/></svg>
